X:39
T:Je voudrais tre marie
R:
N:
O:France
Z:<anamnese@laposte.net> -- http://anamnese.fr.st
M:6/4
L:1/4
Q:1/4=125
K:G
|: EFGE2F | D3B,3 | EFGA2B | F6 :|
   GFED2C | B,3E3 | EFGE2D | E3-E2 B, |
   E3EFE | D2C B,3 | EFGE2D | E6 ||
W:Je voudrais tre marie,
W:J'irais p't'tre plus aux champs (2x)
W:Voil la belle marie,
W:Elle va toujours aux champs
W:
W:Adieu nos amourettes, adieu donc pour longtemps.
